X:1
T:Title
%%score [ 1 2 3 4 ]
L:1/8
Q:1/4=120
M:2/2
K:F
V:1 treble-8 nm="Tenor I"
V:2 treble-8 nm="Tenor II"
V:3 bass nm="Bass I"
V:4 bass nm="Bass II"
V:1
 d8 | d4 z2 d2 | _e2 d2 c4- | c2 A2 d4- | d4 z4 | z8 | d4 d2 d2 | c2 B2 A2 (d2- | d2 cB c2) c2 | %9
w: Ju-|das mer-|ca- tor pes-|* si- mus|_||os- cu- lo|pe- ti- it Do-|* * * * mi-|
 d8 | z4 z2 B2 | B2 B2 c4 | d2 (d3 c B2- | B2) A2 B2 f2- | f2 f2 _e2 d2 | d4 d4 | f6 _e2 | d8 || %18
w: num,|il-|le ut a-|gnus in- * *|* no- cens, non|_ ne- ga- vit|Ju- dae|os- cu-|lum:|
 z4 d4 | d2 d2 e4 | f4 f4- | f2 f2 d4- | d8- | d4 z4 | z2 g2 f2 d2 | _e4 d4 | (c4 B2 AG | %27
w: De-|na- ri- o-|rum nu-|* me- ro|_||Chri- stum Ju-|dae- is|tra- * * *|
 A2) A2 =B4 || z8 | d4 d2 d2 | f2 f2 e4 | d8 | z2 d2 g3 g | g2 f2 _e2 d2 | _ed (d4 c2) | d8 |] %36
w: * di- dit.||Me- li- us|il- li e-|rat,|si na- tus|non fu- is- set,|non fu- is- *|set.|
V:2
 B8 | A4 z2 B2 | c2 d2 _e3 d | c2 c2 B4 | z4 d4 | d2 d2 c2 B2 | A2 (B3 AFG | A2 G4) ^F2 | G8 | %9
w: Ju-|das mer-|ca- tor pes- *|* si- mus|os-|cu- lo pe- ti-|it Do- * * *|* * mi-|num,|
 z2 B2 B2 B2 | c4 d2 (d2- | dc B4) A2 | B4 d4 | c4 B2 d2- | d2 d2 c2 A2 | B4 A2 (d2- | %16
w: il- le ut|a- gnus in-|* * * no-|cens, in-|no- cens non|_ ne- ga- vit|Ju- dae os-|
 d2 cB c2) c2 | A8 || G4 G2 G2 | B4 c4 | d8 | c4 B4 | z2 F2 G2 A2 | B4 A4 | z2 G2 A2 =B2 | %25
w: * * * * cu-|lum:|De- na- ri-|o- rum|nu-|me- ro|Chri- stum Ju-|dae- is,|Chri- stum Ju-|
 c4 F2 (f2- | f2 e2 d4- | d2) d2 d4 || z4 G4 | G2 G2 B4 | A2 (d4 ^c2) | d4 z2 G2 | d3 d d2 c2 | %33
w: dae- is tra-||* di- dit.|Me-|li- us il-|li e- *|rat, si|na- tus non fu-|
 B2 AA B3 B | B2 A2 G4 | A8 |] %36
w: is- set, si na- tus|non fu- is-|set.|
V:3
 G,8 | ^F,4 z2 G,2 | G,2 G,2 G,4- | G,2 ^F,2 G,4 | B,6 B,2 | B,4 A,2 G,2 | ^F,2 (G,3 =F,D,E, | %7
w: Ju-|das mer-|ca- tor pes-|* si- mus|os- cu-|lo pe- ti-|it Do- * * *|
 F,2) G,2 D,4 | _E,6 E,2 | D,2 G,2 G,2 G,2 | A,4 B,4 | z8 | z8 | z4 z2 B,2- | B,2 B,2 G,2 ^F,2 | %15
w: * mi- num,|Do- mi-|num, il- le ut|a- gnus|||non|_ ne- ga- vit|
 G,4 =F,2 (B,2- | B,2 A,G, A,2 G,2- | G,2) ^F,2 F,4 || z8 | G,4 G,2 G,2 | B,4 F,2 B,2- | %21
w: Ju- dae os-||* cu- lum:||De- na- ri-|o- rum nu-|
 B,2 A,2 B,2 F,2 | G,2 A,2 B,2 F,2 | G,6 ^F,2 | G,4 z2 =F,2 | G,2 A,2 B,4 | A,2 (G,4 ^F,E, | %27
w: * me- ro Chri-|stum Ju- dae- is,|tra- di-|dit. Chri-|stum Ju- dae-|is tra- * *|
 ^F,2) F,2 G,4 || G,4 G,2 G,2 | B,3 A, G,4 | D,4 A,4 | D,2 D,2 G,3 G, | (G,2 F,2 _E,4) | %33
w: * di- dit.|Me- li- us|il- li e-|rat, si|na- tus non fu-|is- * *|
 D,2 D,2 G,3 G, | G,2 F,2 _E,4 | D,8 |] %36
w: set, si na- tus|non fu- is-|set.|
V:4
 G,,8 | D,4 z2 G,,2 | C,2 =B,,2 (C,3 _B,, | A,,2) A,,2 G,,4- | G,,8- | G,,8 | z8 | z8 | z8 | z8 | %10
w: Ju-|das mer-|ca- tor pes- *|* si- mus|_||||||
 z4 z2 G,2 | G,2 G,2 F,4 | B,,2 (G,,A,, B,,C,D,E, | F,2) F,2 B,,2 B,,2- | B,,2 B,,2 C,2 D,2 | %15
w: il-|le ut a-|gnus in- * * * * *|* no- cens, non|_ ne- ga- vit|
 G,,4 D,2 (B,,C, | D,E, F,4) C,2 | D,8 || z4 G,,4 | G,,2 G,,2 C,4 | B,,2 (B,,3 C,D,E, | %21
w: Ju- dae os- *|* * * cu-|lum:|De-|na- ri- o-|rum nu- * * *|
 F,2) F,2 B,,4 | z8 | z2 B,,2 C,2 D,2 | _E,4 D,4 | (C,4 B,,4 | C,4 D,4- | D,2) D,2 G,,4 || z8 | %29
w: * me- ro||Chri- stum Ju-|dae- is|tra- *||* di- dit.||
 z8 | z8 | z8 | z8 | z8 | z8 | z8 |] %36
w: |||||||

